X: 224
T: You huayuan
%%abc-version 2.0
%%abcx-abcm2ps-target-version 5.9.1 (29 Sep 2008)
%%abc-creator hum2abc beta
%%abcx-conversion-date 2013/10/02 07:52:29
%%abc-edited-by Helmut Schaffrath
%%humdrum-veritas 2993707138
%%humdrum-veritas-data 1253751609
%%continueall 1
%%barnumbers 0
L: 1/8
M: 2/4
K: G
d> e d A [I:setbarnb 1]| 
d g e d | 
d g g e/ d/ | 
d d A d | 
z g f g | 
d ed2 | 
c d A G | 
D4 | 
c> d A d | 
F GD2 | 
c d A G | 
F GD2 | 
G> G F G | 
AA2B | 
d> g e d | 
B F E G | 
A E/ E/D2- | 
D2z2 |]  



